packages/tokens/icons/boxDown/size24Px.svg

<svg viewBox="0 0 24 24" fill="none" xmlns="http://www.w3.org/2000/svg" width="1em" height="1em"><path d="M8.75 6.5H7.5C6.39543 6.5 5.5 7.39543 5.5 8.5V17.5C5.5 18.6046 6.39543 19.5 7.5 19.5H16.5C17.6046 19.5 18.5 18.6046 18.5 17.5V8.5C18.5 7.39543 17.6046 6.5 16.5 6.5H15.25" stroke="currentColor" stroke-linecap="round"/><path d="M12 3.5L12 11.5M9 9.5L12 12.5L15 9.5" stroke="currentColor" stroke-linecap="round" stroke-linejoin="round"/></svg>

<svg xmlns="http://www.w3.org/2000/svg" fill="none" viewBox="0 0 24 24" width="1em" height="1em"><path stroke="currentColor" stroke-linecap="round" d="M8.75 6.5H7.5a2 2 0 0 0-2 2v9a2 2 0 0 0 2 2h9a2 2 0 0 0 2-2v-9a2 2 0 0 0-2-2h-1.25"/><path stroke="currentColor" stroke-linecap="round" stroke-linejoin="round" d="M12 3.5v8m-3-2 3 3 3-3"/></svg>
